X: 2157
T: Auld Bob Morrice
R: waltz
M: 3/4
K: Gmajor
{GA}B2|({A}G3E) (~D2|E2) G2 g2|(d3 B)(~AG)|{G}A4 (~BA)|
(GAGE) ~D2|(E2 G2) ~g2{fe}|(d3B)(~AG)|G4:|
B2|{B}A2 A2 (Bd)|e2 e2 (ga)|(ba)(ge)(dB)|{B}~A4 ({ABc}BA)|
(G>AGE) ~D2|(E2 G2) (ge)|(d3 B)(~AG)|G4||

